Obsidian/apps/96/gnome-subtitles.svg

<svg height="96" width="96" xmlns="http://www.w3.org/2000/svg" xmlns:xlink="http://www.w3.org/1999/xlink"><linearGradient id="a" gradientTransform="scale(1.0058652 .994169)" gradientUnits="userSpaceOnUse" x1="45.447727" x2="45.447727" y1="92.539597" y2="7.01654"><stop offset="0"/><stop offset="1" stop-opacity=".588235"/></linearGradient><linearGradient id="b"><stop offset="0" stop-color="#fefefe"/><stop offset="1" stop-color="#fefefe" stop-opacity="0"/></linearGradient><linearGradient id="c" gradientUnits="userSpaceOnUse" x1="48" x2="48" xlink:href="#b" y1="20.220806" y2="138.66119"/><clipPath id="d"><rect height="84" rx="6" width="84" x="6" y="6"/></clipPath><linearGradient id="e" gradientTransform="translate(0 1)" gradientUnits="userSpaceOnUse" x1="48" x2="48" xlink:href="#a" y1="90" y2="5.987717"/><linearGradient id="f" gradientTransform="translate(-1 1)" gradientUnits="userSpaceOnUse" x1="48" x2="48" xlink:href="#a" y1="90.868095" y2="5.987717"/><filter id="g" color-interpolation-filters="sRGB" height="1.388211" width="1.388211" x="-.194106" y="-.194106"><feGaussianBlur stdDeviation="5.3379019"/></filter><radialGradient id="h" cx="48" cy="72" gradientTransform="matrix(1.1428571 0 0 .95238095 -6.857143 3.428571)" gradientUnits="userSpaceOnUse" r="42" xlink:href="#b"/><linearGradient id="i" gradientUnits="userSpaceOnUse" x1="44" x2="44" xlink:href="#b" y1="6" y2="64.215118"/><linearGradient id="j" gradientUnits="userSpaceOnUse" x1="36.357143" x2="36.357143" xlink:href="#b" y1="6" y2="63.893143"/><linearGradient id="k" gradientUnits="userSpaceOnUse" x1="48" x2="48" y1="90" y2="5.987717"><stop offset="0" stop-color="#f0b500"/><stop offset="1" stop-color="#ffcd55"/></linearGradient><path d="m12 4.03125c-6.0701637-.1617408-10.6911509 5.6895113-9.96875 11.5.0000716.04167-.0000701.08333 0 .125.030431 18.086218-.077787 36.153437.03125 54.25a.93232674.93232674 0 0 0 0 .0625c.4297709 5.831518 6.2168912 9.674679 11.71875 9 .0418-.0051.08323.0056.125 0h5.3125c-.679778 4.428501-1.596836 8.895227-2.0625 13.40625a.93232674.93232674 0 0 0 .03125.28125c.279995 1.294203 1.371731 2.108795 2.46875 2.25 1.023884.131791 2.065552-.225148 2.84375-1v.03125l22.84375-14.96875c13.185056-.02898 26.362788.07707 39.5625-.03125a.93232674.93232674 0 0 0 .0625 0c5.831518-.429771 9.674679-6.216892 9-11.71875-.0051-.0418.0056-.08323 0-.125-.03043-18.00176.07779-35.987855-.03125-54a.93232674.93232674 0 0 0 0-.0625c-.429771-5.8315178-6.216892-9.6746792-11.71875-9h-.125-70.0625z" fill="url(#f)" opacity=".08"/><path d="m12 4.96875c-5.501783-.1656394-9.7593033 5.261556-9.03125 10.551463.031153 18.132768-.06237 36.268711.046873 54.39949.3891125 5.279828 5.7301904 8.791471 10.757959 8.111547h6.538918c-.693629 4.811167-1.723208 9.637038-2.21875 14.4375.399566 1.846889 2.79006 1.976363 3.910163.694482 7.696612-5.043994 15.393225-10.087988 23.089837-15.131982 13.274928-.03092 26.553011.06205 39.825953-.04687 5.279828-.389113 8.791471-5.730191 8.111547-10.757959-.031152-18.048315.062369-36.099801-.046873-54.146124-.389113-5.2798278-5.730191-8.7914714-10.757959-8.111547-23.408806 0-46.817612 0-70.226418 0z" fill="url(#f)" opacity=".1"/><path d="m12 6c-4.4078522 0-8 3.5921478-8 8v55c0 4.407852 3.5921478 8 8 8h9.5l-2.40625 14.90625a.98733463.98733463 0 0 0 1.5.96875l24.21875-15.875h39.1875c4.407852 0 8-3.592148 8-8v-55c0-4.4078522-3.592148-8-8-8z" fill="url(#f)" opacity=".15"/><path d="m12 7c-3.878 0-7 3.122-7 7v55c0 3.878 3.122 7 7 7h10.65625l-2.59375 16.0625 24.5-16.0625h39.4375c3.878 0 7-3.122 7-7v-55c0-3.878-3.122-7-7-7z" fill="url(#f)" opacity=".3"/><path d="m12 7c-3.324 0-6 2.676-6 6v56c0 3.324 2.676 6 6 6h12l-3 16 23-16h40c3.324 0 6-2.676 6-6v-56c0-3.324-2.676-6-6-6z" fill="url(#e)" opacity=".45"/><path d="m12 6c-3.324 0-6 2.676-6 6v56c0 3.324 2.676 6 6 6h12l-3 16 23-16h40c3.324 0 6-2.676 6-6v-56c0-3.324-2.676-6-6-6z" fill="url(#k)"/><path d="m12 6c-3.324 0-6 2.676-6 6v2 68 2c0 .334721.0413.6507.0937.96875.0487.295596.097.596915.1875.875.01.03038.0209.0636.0312.09375.0989.287771.23488.547452.375.8125.14459.273507.31562.535615.5.78125s.37378.473472.59375.6875c.43995.428056.94291.814526 1.5 1.09375.27854.139612.57347.246947.875.34375-.2562-.100222-.48671-.236272-.71875-.375-.007-.0044-.0239.0045-.0312 0-.0319-.0193-.0623-.04251-.0937-.0625-.1204-.0767-.23102-.163513-.34375-.25-.10617-.0808-.21328-.161112-.3125-.25-.17793-.161433-.34746-.345388-.5-.53125-.10758-.130255-.21839-.265285-.3125-.40625-.0251-.03838-.0384-.08587-.0625-.125-.0648-.103032-.13023-.204517-.1875-.3125-.10101-.194706-.20568-.415701-.28125-.625-.008-.02181-.0236-.04055-.0312-.0625-.0318-.09195-.0358-.186831-.0625-.28125-.0303-.106618-.0704-.203031-.0937-.3125-.07298-.341512-.1251-.698205-.1251-1.0625v-2-68-2c0-2.781848 2.21815-5 5-5h2 68 2c2.781848 0 5 2.218152 5 5v2 68 2c0 .364295-.05212.720988-.125 1.0625-.04415.206893-.08838.397658-.15625.59375-.0077.02195-.0233.04069-.03125.0625-.06274.173739-.138383.367449-.21875.53125-.04158.0828-.07904.169954-.125.25-.0546.09721-.126774.18835-.1875.28125-.09411.140965-.204921.275995-.3125.40625-.143174.17445-.303141.346998-.46875.5-.01117.0102-.01998.02115-.03125.03125-.138386.125556-.285091.234436-.4375.34375-.102571.07315-.204318.153364-.3125.21875-.0074.0045-.02384-.0044-.03125 0-.232039.138728-.462548.274778-.71875.375.301527-.0968.596455-.204138.875-.34375.55709-.279224 1.060053-.665694 1.5-1.09375.219973-.214028.409366-.441865.59375-.6875s.355408-.507743.5-.78125c.14012-.265048.276135-.524729.375-.8125.01041-.03078.02133-.06274.03125-.09375.09046-.278085.1388-.579404.1875-.875.0524-.31805.09375-.634029.09375-.96875v-2-68-2c0-3.324-2.676-6-6-6z" fill="url(#j)" opacity=".5"/><path d="m12 6c-3.324 0-6 2.676-6 6v56c0 2.9085 2.0422266 5.317352 4.78125 5.875-2.2021357-.53769-3.8125-2.49722-3.8125-4.875v-56c0-2.797389 2.2338615-5.03125 5.03125-5.03125h72c2.797388 0 5.03125 2.233861 5.03125 5.03125v56c0 2.37778-1.610365 4.33731-3.8125 4.875 2.739023-.557648 4.78125-2.9665 4.78125-5.875v-56c0-3.324-2.676-6-6-6zm12 68.03125-3 15.96875 22.96875-15.96875a.98129583.98129583 0 0 0 -.53125.15625l-21.03125 14.625 2.5625-13.625a.98129583.98129583 0 0 0 -.96875-1.15625z" fill="url(#i)" opacity=".4"/><path d="m12 6c-3.324 0-6 2.676-6 6v56c0 3.324 2.676 6 6 6h12l-3 16 23-16h40c3.324 0 6-2.676 6-6v-56c0-3.324-2.676-6-6-6zm0 2h72c2.251468 0 4 1.7485321 4 4v56c0 2.251468-1.748532 4-4 4h-40a1.9985725 1.9985725 0 0 0 -1.15625.375l-18.96875 13.1875 2.09375-11.1875a1.9985725 1.9985725 0 0 0 -1.96875-2.375h-12c-2.2514679 0-4-1.748532-4-4v-56c0-2.2514679 1.7485321-4 4-4z" fill="url(#h)" opacity=".2"/><g stroke-linecap="round"><rect height="66" rx="12" style="opacity:.1;stroke:#fefefe;stroke-width:.579734;clip-path:url(#d);fill:url(#c);filter:url(#g)" transform="matrix(1 0 0 .74384496 0 3.842326)" width="66" x="15" y="15"/><g fill="none" opacity=".3" stroke="#000" stroke-width="2" transform="translate(0 2)"><path d="m14.058874 38.663479h67.882251"/><path d="m14.058874 46.663479h67.882251"/><path d="m14.058874 54.663479h67.882251"/><path d="m30.652455 62.663479h34.695089"/></g><path d="m14.058874 38.663479h67.882251" fill="none" stroke="#000" stroke-width="2"/><path d="m14.058874 46.663479h67.882251" fill="none" stroke="#000" stroke-width="2"/><path d="m14.058874 54.663479h67.882251" fill="none" stroke="#000" stroke-width="2"/><path d="m30.652455 62.663479h34.695089" fill="none" stroke="#000" stroke-width="2"/></g></svg>

<?xml version="1.0" encoding="UTF-8" standalone="no"?>
<!-- Created with Inkscape (http://www.inkscape.org/) -->

<svg
   xmlns:dc="http://purl.org/dc/elements/1.1/"
   xmlns:cc="http://creativecommons.org/ns#"
   xmlns:rdf="http://www.w3.org/1999/02/22-rdf-syntax-ns#"
   xmlns:svg="http://www.w3.org/2000/svg"
   xmlns="http://www.w3.org/2000/svg"
   xmlns:xlink="http://www.w3.org/1999/xlink"
   xmlns:sodipodi="http://sodipodi.sourceforge.net/DTD/sodipodi-0.dtd"
   xmlns:inkscape="http://www.inkscape.org/namespaces/inkscape"
   version="1.0"
   width="96"
   height="96"
   id="svg2408"
   inkscape:version="0.48.0 r9654"
   sodipodi:docname="gnome-subtitles.svg"
   inkscape:export-filename="/home/seba/Dropbox/Faenza/gnome-subtitles.png"
   inkscape:export-xdpi="45"
   inkscape:export-ydpi="45">
  <metadata
     id="metadata181">
    <rdf:RDF>
      <cc:Work
         rdf:about="">
        <dc:format>image/svg+xml</dc:format>
        <dc:type
           rdf:resource="http://purl.org/dc/dcmitype/StillImage" />
        <dc:title />
      </cc:Work>
    </rdf:RDF>
  </metadata>
  <sodipodi:namedview
     pagecolor="#fefefe"
     bordercolor="#666666"
     borderopacity="1"
     objecttolerance="10"
     gridtolerance="10"
     guidetolerance="10"
     inkscape:pageopacity="0"
     inkscape:pageshadow="2"
     inkscape:window-width="1280"
     inkscape:window-height="665"
     id="namedview179"
     showgrid="false"
     inkscape:zoom="1.0201489"
     inkscape:cx="-53.443618"
     inkscape:cy="40.548737"
     inkscape:window-x="0"
     inkscape:window-y="24"
     inkscape:window-maximized="1"
     inkscape:current-layer="svg2408" />
  <defs
     id="defs2410">
    <linearGradient
       gradientUnits="userSpaceOnUse"
       id="linearGradient3187"
       y2="0.99929649"
       x2="10.31979"
       y1="21"
       x1="10.31979">
      <stop
         offset="0"
         style="stop-color:#f0b500;stop-opacity:1;"
         id="stop3190" />
      <stop
         offset="1"
         style="stop-color:#ffcd55;stop-opacity:1;"
         id="stop3192" />
    </linearGradient>
    <linearGradient
       x1="45.447727"
       y1="92.539597"
       x2="45.447727"
       y2="7.0165396"
       id="ButtonShadow"
       gradientUnits="userSpaceOnUse"
       gradientTransform="scale(1.0058652,0.994169)">
      <stop
         id="stop3750"
         style="stop-color:#000000;stop-opacity:1"
         offset="0" />
      <stop
         id="stop3752"
         style="stop-color:#000000;stop-opacity:0.58823532"
         offset="1" />
    </linearGradient>
    <linearGradient
       id="linearGradient3737">
      <stop
         id="stop3739"
         style="stop-color:#fefefe;stop-opacity:1"
         offset="0" />
      <stop
         id="stop3741"
         style="stop-color:#fefefe;stop-opacity:0"
         offset="1" />
    </linearGradient>
    <filter
       color-interpolation-filters="sRGB"
       id="filter3174">
      <feGaussianBlur
         id="feGaussianBlur3176"
         stdDeviation="1.71" />
    </filter>
    <linearGradient
       x1="48"
       y1="20.220806"
       x2="48"
       y2="138.66119"
       id="linearGradient3613"
       xlink:href="#linearGradient3737"
       gradientUnits="userSpaceOnUse" />
    <clipPath
       id="clipPath3613">
      <rect
         width="84"
         height="84"
         rx="6"
         ry="6"
         x="6"
         y="6"
         id="rect3615"
         style="fill:#fefefe;fill-opacity:1;fill-rule:nonzero;stroke:none" />
    </clipPath>
    <linearGradient
       x1="48"
       y1="90"
       x2="48"
       y2="5.9877172"
       id="linearGradient3989"
       xlink:href="#ButtonShadow"
       gradientUnits="userSpaceOnUse"
       gradientTransform="translate(0,1)" />
    <linearGradient
       x1="48"
       y1="90.868095"
       x2="48"
       y2="5.9877172"
       id="linearGradient4001"
       xlink:href="#ButtonShadow"
       gradientUnits="userSpaceOnUse"
       gradientTransform="translate(-1,1)" />
    <linearGradient
       x1="48"
       y1="90.868095"
       x2="48"
       y2="5.9877172"
       id="linearGradient4009"
       xlink:href="#ButtonShadow"
       gradientUnits="userSpaceOnUse"
       gradientTransform="translate(-1,1)" />
    <linearGradient
       x1="48"
       y1="90.868095"
       x2="48"
       y2="5.9877172"
       id="linearGradient4023"
       xlink:href="#ButtonShadow"
       gradientUnits="userSpaceOnUse"
       gradientTransform="translate(-1,1)" />
    <linearGradient
       x1="48"
       y1="90.868095"
       x2="48"
       y2="5.9877172"
       id="linearGradient4031"
       xlink:href="#ButtonShadow"
       gradientUnits="userSpaceOnUse"
       gradientTransform="translate(-1,1)" />
    <filter
       x="-0.19410552"
       y="-0.19410552"
       width="1.388211"
       height="1.388211"
       color-interpolation-filters="sRGB"
       id="filter4055">
      <feGaussianBlur
         id="feGaussianBlur4057"
         stdDeviation="5.3379019" />
    </filter>
    <radialGradient
       inkscape:collect="always"
       xlink:href="#linearGradient3737"
       id="radialGradient3159"
       gradientUnits="userSpaceOnUse"
       gradientTransform="matrix(1.1428571,0,0,0.95238095,-6.8571426,3.4285712)"
       cx="48"
       cy="72"
       fx="48"
       fy="72"
       r="42" />
    <linearGradient
       inkscape:collect="always"
       xlink:href="#linearGradient3737"
       id="linearGradient3162"
       gradientUnits="userSpaceOnUse"
       x1="44"
       y1="6"
       x2="44"
       y2="64.215118" />
    <linearGradient
       inkscape:collect="always"
       xlink:href="#linearGradient3737"
       id="linearGradient3168"
       gradientUnits="userSpaceOnUse"
       x1="36.357143"
       y1="6"
       x2="36.357143"
       y2="63.893143" />
    <linearGradient
       inkscape:collect="always"
       xlink:href="#linearGradient3187"
       id="linearGradient3174"
       gradientUnits="userSpaceOnUse"
       x1="48"
       y1="90"
       x2="48"
       y2="5.9877172" />
  </defs>
  <g
     id="layer2"
     style="display:none">
    <rect
       width="86"
       height="85"
       rx="6"
       ry="6"
       x="5"
       y="7"
       id="rect3745"
       style="opacity:0.9;fill:url(#ButtonShadow);fill-opacity:1;fill-rule:nonzero;stroke:none;filter:url(#filter3174)" />
  </g>
  <g
     id="layer3">
    <path
       d="m 12,4.03125 c -6.0701637,-0.1617408 -10.6911509,5.6895113 -9.96875,11.5 7.16e-5,0.04167 -7.01e-5,0.08333 0,0.125 0.030431,18.086218 -0.077787,36.153437 0.03125,54.25 a 0.93232674,0.93232674 0 0 0 0,0.0625 c 0.4297709,5.831518 6.2168912,9.674679 11.71875,9 0.0418,-0.0051 0.08323,0.0056 0.125,0 l 5.3125,0 c -0.679778,4.428501 -1.596836,8.895227 -2.0625,13.40625 a 0.93232674,0.93232674 0 0 0 0.03125,0.28125 c 0.279995,1.294203 1.371731,2.108795 2.46875,2.25 1.023884,0.131791 2.065552,-0.225148 2.84375,-1 l 0,0.03125 22.84375,-14.96875 c 13.185056,-0.02898 26.362788,0.07707 39.5625,-0.03125 a 0.93232674,0.93232674 0 0 0 0.0625,0 c 5.831518,-0.429771 9.674679,-6.216892 9,-11.71875 -0.0051,-0.0418 0.0056,-0.08323 0,-0.125 -0.03043,-18.00176 0.07779,-35.987855 -0.03125,-54 a 0.93232674,0.93232674 0 0 0 0,-0.0625 c -0.429771,-5.8315178 -6.216892,-9.6746792 -11.71875,-9 l -0.125,0 -70.0625,0 -0.03125,0 z"
       id="path4029"
       style="opacity:0.07999998;fill:url(#linearGradient4031);fill-opacity:1;fill-rule:nonzero;stroke:none" />
    <path
       d="M 12,4.96875 C 6.498217,4.8031106 2.2406967,10.230306 2.96875,15.520213 c 0.031153,18.132768 -0.06237,36.268711 0.046873,54.39949 0.3891125,5.279828 5.7301904,8.791471 10.757959,8.111547 2.17964,0 4.359279,0 6.538918,0 -0.693629,4.811167 -1.723208,9.637038 -2.21875,14.4375 0.399566,1.846889 2.79006,1.976363 3.910163,0.694482 C 29.700525,88.119238 37.397138,83.075244 45.09375,78.03125 58.368678,78.00033 71.646761,78.0933 84.919703,77.98438 90.199531,77.595267 93.711174,72.254189 93.03125,67.226421 93.000098,49.178106 93.093619,31.12662 92.984377,13.080297 92.595264,7.8004692 87.254186,4.2888256 82.226418,4.96875 c -23.408806,0 -46.817612,0 -70.226418,0 z"
       id="path4015"
       style="opacity:0.1;fill:url(#linearGradient4023);fill-opacity:1;fill-rule:nonzero;stroke:none" />
    <path
       d="M 12,6 C 7.5921478,6 4,9.5921478 4,14 l 0,55 c 0,4.407852 3.5921478,8 8,8 l 9.5,0 -2.40625,14.90625 a 0.98733463,0.98733463 0 0 0 1.5,0.96875 L 44.8125,77 84,77 c 4.407852,0 8,-3.592148 8,-8 L 92,14 C 92,9.5921478 88.407852,6 84,6 L 12,6 z"
       id="path4007"
       style="opacity:0.15;fill:url(#linearGradient4009);fill-opacity:1;fill-rule:nonzero;stroke:none" />
    <path
       d="M 12,7 C 8.122,7 5,10.122 5,14 l 0,55 c 0,3.878 3.122,7 7,7 L 22.65625,76 20.0625,92.0625 44.5625,76 84,76 c 3.878,0 7,-3.122 7,-7 L 91,14 C 91,10.122 87.878,7 84,7 L 12,7 z"
       id="rect3991"
       style="opacity:0.3;fill:url(#linearGradient4001);fill-opacity:1;fill-rule:nonzero;stroke:none" />
    <path
       d="M 12,7 C 8.676,7 6,9.676 6,13 l 0,56 c 0,3.324 2.676,6 6,6 l 12,0 -3,16 23,-16 40,0 c 3.324,0 6,-2.676 6,-6 L 90,13 C 90,9.676 87.324,7 84,7 L 12,7 z"
       id="path3984"
       style="opacity:0.45;fill:url(#linearGradient3989);fill-opacity:1;fill-rule:nonzero;stroke:none" />
  </g>
  <path
     inkscape:connector-curvature="0"
     style="fill:url(#linearGradient3174);fill-opacity:1;fill-rule:nonzero;stroke:none"
     id="rect2419"
     d="M 12,6 C 8.676,6 6,8.676 6,12 l 0,56 c 0,3.324 2.676,6 6,6 l 12,0 -3,16 23,-16 40,0 c 3.324,0 6,-2.676 6,-6 L 90,12 C 90,8.676 87.324,6 84,6 L 12,6 z" />
  <path
     inkscape:connector-curvature="0"
     style="opacity:0.5;fill:url(#linearGradient3168);fill-opacity:1;fill-rule:nonzero;stroke:none"
     id="path3147"
     d="M 12,6 C 8.676,6 6,8.676 6,12 l 0,2 0,68 0,2 c 0,0.334721 0.0413,0.6507 0.0937,0.96875 0.0487,0.295596 0.097,0.596915 0.1875,0.875 0.01,0.03038 0.0209,0.0636 0.0312,0.09375 0.0989,0.287771 0.23488,0.547452 0.375,0.8125 0.14459,0.273507 0.31562,0.535615 0.5,0.78125 0.18438,0.245635 0.37378,0.473472 0.59375,0.6875 0.43995,0.428056 0.94291,0.814526 1.5,1.09375 0.27854,0.139612 0.57347,0.246947 0.875,0.34375 -0.2562,-0.100222 -0.48671,-0.236272 -0.71875,-0.375 -0.007,-0.0044 -0.0239,0.0045 -0.0312,0 -0.0319,-0.0193 -0.0623,-0.04251 -0.0937,-0.0625 -0.1204,-0.0767 -0.23102,-0.163513 -0.34375,-0.25 -0.10617,-0.0808 -0.21328,-0.161112 -0.3125,-0.25 C 8.47832,88.557317 8.30879,88.373362 8.15625,88.1875 8.04867,88.057245 7.93786,87.922215 7.84375,87.78125 7.81865,87.74287 7.80535,87.69538 7.78125,87.65625 7.71645,87.553218 7.65102,87.451733 7.59375,87.34375 7.49274,87.149044 7.38807,86.928049 7.3125,86.71875 7.3045,86.69694 7.2889,86.6782 7.2813,86.65625 7.2495,86.5643 7.2455,86.469419 7.2188,86.375 7.1885,86.268382 7.1484,86.171969 7.1251,86.0625 7.05212,85.720988 7,85.364295 7,85 L 7,83 7,15 7,13 C 7,10.218152 9.21815,8 12,8 l 2,0 68,0 2,0 c 2.781848,0 5,2.218152 5,5 l 0,2 0,68 0,2 c 0,0.364295 -0.05212,0.720988 -0.125,1.0625 -0.04415,0.206893 -0.08838,0.397658 -0.15625,0.59375 -0.0077,0.02195 -0.0233,0.04069 -0.03125,0.0625 -0.06274,0.173739 -0.138383,0.367449 -0.21875,0.53125 -0.04158,0.0828 -0.07904,0.169954 -0.125,0.25 -0.0546,0.09721 -0.126774,0.18835 -0.1875,0.28125 -0.09411,0.140965 -0.204921,0.275995 -0.3125,0.40625 -0.143174,0.17445 -0.303141,0.346998 -0.46875,0.5 -0.01117,0.0102 -0.01998,0.02115 -0.03125,0.03125 -0.138386,0.125556 -0.285091,0.234436 -0.4375,0.34375 -0.102571,0.07315 -0.204318,0.153364 -0.3125,0.21875 -0.0074,0.0045 -0.02384,-0.0044 -0.03125,0 -0.232039,0.138728 -0.462548,0.274778 -0.71875,0.375 0.301527,-0.0968 0.596455,-0.204138 0.875,-0.34375 0.55709,-0.279224 1.060053,-0.665694 1.5,-1.09375 0.219973,-0.214028 0.409366,-0.441865 0.59375,-0.6875 0.184384,-0.245635 0.355408,-0.507743 0.5,-0.78125 0.14012,-0.265048 0.276135,-0.524729 0.375,-0.8125 0.01041,-0.03078 0.02133,-0.06274 0.03125,-0.09375 0.09046,-0.278085 0.1388,-0.579404 0.1875,-0.875 C 89.95865,84.6507 90,84.334721 90,84 l 0,-2 0,-68 0,-2 C 90,8.676 87.324,6 84,6 L 12,6 z" />
  <path
     inkscape:connector-curvature="0"
     style="opacity:0.4;fill:url(#linearGradient3162);fill-opacity:1;fill-rule:nonzero;stroke:none"
     id="path3953"
     d="M 12,6 C 8.676,6 6,8.676 6,12 l 0,56 c 0,2.9085 2.0422266,5.317352 4.78125,5.875 C 8.5791143,73.33731 6.96875,71.37778 6.96875,69 l 0,-56 C 6.96875,10.202611 9.2026115,7.96875 12,7.96875 l 72,0 c 2.797388,0 5.03125,2.233861 5.03125,5.03125 l 0,56 c 0,2.37778 -1.610365,4.33731 -3.8125,4.875 C 87.957773,73.317352 90,70.9085 90,68 L 90,12 C 90,8.676 87.324,6 84,6 L 12,6 z M 24,74.03125 21,90 43.96875,74.03125 A 0.98129583,0.98129583 0 0 0 43.4375,74.1875 l -21.03125,14.625 2.5625,-13.625 A 0.98129583,0.98129583 0 0 0 24,74.03125 z" />
  <path
     inkscape:connector-curvature="0"
     style="opacity:0.2;fill:url(#radialGradient3159);fill-opacity:1;fill-rule:nonzero;stroke:none"
     id="path3969"
     d="M 12,6 C 8.676,6 6,8.676 6,12 l 0,56 c 0,3.324 2.676,6 6,6 l 12,0 -3,16 23,-16 40,0 c 3.324,0 6,-2.676 6,-6 L 90,12 C 90,8.676 87.324,6 84,6 L 12,6 z m 0,2 72,0 c 2.251468,0 4,1.7485321 4,4 l 0,56 c 0,2.251468 -1.748532,4 -4,4 l -40,0 a 1.9985725,1.9985725 0 0 0 -1.15625,0.375 L 23.875,85.5625 25.96875,74.375 A 1.9985725,1.9985725 0 0 0 24,72 L 12,72 C 9.7485321,72 8,70.251468 8,68 L 8,12 C 8,9.7485321 9.7485321,8 12,8 z" />
  <g
     id="layer5"
     style="display:inline">
    <rect
       width="66"
       height="66"
       rx="12"
       ry="12"
       x="15"
       y="15"
       transform="matrix(1,0,0,0.74384496,0,3.8423256)"
       clip-path="url(#clipPath3613)"
       id="rect3171"
       style="opacity:0.1;fill:url(#linearGradient3613);fill-opacity:1;fill-rule:nonzero;stroke:#fefefe;stroke-width:0.57973403;stroke-linecap:round;stroke-linejoin:miter;stroke-miterlimit:4;stroke-opacity:1;stroke-dasharray:none;stroke-dashoffset:0;filter:url(#filter4055)" />
  </g>
  <g
     id="g4018-2"
     style="stroke:#000000;stroke-opacity:1;fill:none;fill-opacity:1;opacity:0.3"
     transform="translate(0,2)">
    <path
       inkscape:connector-curvature="0"
       id="path3962-1"
       d="m 14.058874,38.663479 67.882251,0"
       style="fill:none;stroke:#000000;stroke-width:2;stroke-linecap:round;stroke-linejoin:miter;stroke-miterlimit:4;stroke-opacity:1;stroke-dasharray:none;fill-opacity:1" />
    <path
       inkscape:connector-curvature="0"
       id="path3962-4-7"
       d="m 14.058874,46.663479 67.882251,0"
       style="fill:none;stroke:#000000;stroke-width:2;stroke-linecap:round;stroke-linejoin:miter;stroke-miterlimit:4;stroke-opacity:1;stroke-dasharray:none;fill-opacity:1" />
    <path
       inkscape:connector-curvature="0"
       id="path3962-4-2-79"
       d="m 14.058874,54.663479 67.882251,0"
       style="fill:none;stroke:#000000;stroke-width:2;stroke-linecap:round;stroke-linejoin:miter;stroke-miterlimit:4;stroke-opacity:1;stroke-dasharray:none;fill-opacity:1" />
    <path
       inkscape:connector-curvature="0"
       id="path3962-4-2-7-7"
       d="m 30.652455,62.663479 34.695089,0"
       style="fill:none;stroke:#000000;stroke-width:2;stroke-linecap:round;stroke-linejoin:miter;stroke-miterlimit:4;stroke-opacity:1;stroke-dasharray:none;fill-opacity:1" />
  </g>
  <g
     id="g4018">
    <path
       inkscape:connector-curvature="0"
       id="path3962"
       d="m 14.058874,38.663479 67.882251,0"
       style="fill:none;stroke:#000000;stroke-width:2;stroke-linecap:round;stroke-linejoin:miter;stroke-miterlimit:4;stroke-opacity:1;stroke-dasharray:none" />
    <path
       inkscape:connector-curvature="0"
       id="path3962-4"
       d="m 14.058874,46.663479 67.882251,0"
       style="fill:none;stroke:#000000;stroke-width:2;stroke-linecap:round;stroke-linejoin:miter;stroke-miterlimit:4;stroke-opacity:1;stroke-dasharray:none" />
    <path
       inkscape:connector-curvature="0"
       id="path3962-4-2"
       d="m 14.058874,54.663479 67.882251,0"
       style="fill:none;stroke:#000000;stroke-width:2;stroke-linecap:round;stroke-linejoin:miter;stroke-miterlimit:4;stroke-opacity:1;stroke-dasharray:none" />
    <path
       inkscape:connector-curvature="0"
       id="path3962-4-2-7"
       d="m 30.652455,62.663479 34.695089,0"
       style="fill:none;stroke:#000000;stroke-width:2;stroke-linecap:round;stroke-linejoin:miter;stroke-miterlimit:4;stroke-opacity:1;stroke-dasharray:none" />
  </g>
</svg>
